X:99
T:Scotch Cap
T:Edinburgh Castle
R:Jig
H:Refers to the Scots bonnet.
M:6/8
L:1/8
Q:110
K:DDor
D2D d2d|e2d c2A|B2d B2A|1 B3 d3:|2 B3 d2 d/2e/2|:
f2A A2 d/2e/2|f2A A2 d/2e/2|f2A A2F|A3 d3|B2B A2F|G2G d2d|B2B AF2|E3 D3||

